img/bulb.svg

<svg width="120" height="120" viewBox="0 0 120 120" fill="none" xmlns="http://www.w3.org/2000/svg">
<path fill-rule="evenodd" clip-rule="evenodd" d="M43.5137 7.61719C44.1012 9.45999 44.1477 11.6178 44.5704 13.6061C44.9609 15.4528 46.3758 17.4368 45.2743 18.8904C42.2116 18.0117 43.0355 11.8342 42.9835 8.14555C43.0767 8.00406 43.168 7.85969 43.1609 7.61719H43.5137Z" fill="#C7399F"/>
<path fill-rule="evenodd" clip-rule="evenodd" d="M65.3469 9.72656C65.2556 11.9992 64.2544 14.725 63.5863 17.3007C62.9433 19.7786 62.8216 23.0043 60.5917 23.994C59.0156 21.8021 60.9947 19.0391 61.8257 16.9484C62.766 14.5817 63.6222 12.1916 64.643 10.2551C64.5929 9.97032 64.8096 9.9517 64.8204 9.72656H65.3469Z" fill="#C7399F"/>
<path fill-rule="evenodd" clip-rule="evenodd" d="M18.1526 17.3063C18.3568 17.2777 18.466 17.345 18.5036 17.4824C20.1245 19.2936 21.8207 21.1508 23.6117 22.9429C25.2935 24.6245 28.0642 25.9408 28.0159 28.7556C25.2845 29.2673 24.0326 25.9832 22.555 24.1759C20.9233 22.179 18.9335 20.2048 17.9753 18.0109C17.9019 17.6425 18.0971 17.5445 18.1526 17.3063Z" fill="#C7399F"/>
<path fill-rule="evenodd" clip-rule="evenodd" d="M83.4846 25.0601C82.521 26.5545 80.6762 27.2994 79.2577 28.4066C77.9753 29.4084 76.8505 31.4607 74.8535 31.049C75.6899 27.3042 79.9956 27.0318 82.4279 24.8838C82.8631 24.8607 83.2768 24.8571 83.4846 25.0601Z" fill="#C7399F"/>
<path fill-rule="evenodd" clip-rule="evenodd" d="M63.7606 37.0349C61.2889 36.9249 60.1051 34.3034 58.477 32.8075C56.9152 31.3723 54.9845 29.4849 52.8406 28.7561C50.6269 28.0041 47.3242 28.7493 44.5624 27.8755C44.523 26.4047 45.1122 26.3468 46.6758 26.4663C51.9648 26.8707 56.2937 28.7037 59.8866 31.2222C62.0286 32.7235 64.3319 34.9016 63.7606 37.0349Z" fill="#C7399F"/>
<path fill-rule="evenodd" clip-rule="evenodd" d="M41.0392 26.9971H41.5675C41.8201 28.2336 40.0989 28.3583 39.4541 28.7584C37.0362 30.2591 34.835 32.039 32.7592 34.395C28.6756 39.0325 23.6911 45.9161 26.2434 55.1799C26.7699 57.0958 27.9789 58.7845 29.0607 60.1119C30.2141 61.5264 32.6463 62.5534 32.4081 65.0439C29.7323 64.8786 27.7568 61.8769 26.5944 59.4073C24.7926 55.5755 23.5765 51.0225 24.1281 45.3159C24.5777 40.6697 28.5305 35.0283 31.5269 32.2814C34.1204 29.9038 38.1449 28.2508 41.0392 26.9971Z" fill="#C7399F"/>
<path fill-rule="evenodd" clip-rule="evenodd" d="M51.086 31.9312C50.6436 33.923 51.9994 35.9993 51.7898 37.744C49.6782 37.7409 50.169 35.138 49.8519 33.3405C48.0125 32.0682 45.0215 31.9475 42.4549 31.4028C42.4227 31.0186 42.5982 30.8424 42.9815 30.8744C45.5892 30.6262 49.4436 30.6289 51.086 31.9312Z" fill="#C7399F"/>
<path fill-rule="evenodd" clip-rule="evenodd" d="M38.0334 33.6906C37.5803 35.1747 36.2191 35.7519 34.8633 36.3327C35.2466 34.8788 36.6114 33.5246 38.0334 33.6906Z" fill="#C7399F"/>
<path fill-rule="evenodd" clip-rule="evenodd" d="M14.2581 36.5086C10.9249 37.3748 7.78882 35.1539 4.57031 34.7471V34.2188C7.70106 34.3826 12.587 34.3004 14.2581 36.5086Z" fill="#C7399F"/>
<path fill-rule="evenodd" clip-rule="evenodd" d="M59.7222 36.3322C60.2148 40.5502 53.1634 41.4266 51.7969 38.2697C53.2046 38.5711 55.7676 39.4611 57.2578 38.0937C57.6715 37.1859 58.3808 35.1966 59.7222 36.3322Z" fill="#C7399F"/>
<path fill-rule="evenodd" clip-rule="evenodd" d="M60.7636 39.4922H61.4675C61.3027 40.5699 62.1194 40.2725 62.5242 41.0776C62.5331 41.7333 61.7397 41.5855 61.1146 41.606C60.6436 41.1974 60.3946 40.2287 60.7636 39.4922Z" fill="#C7399F"/>
<path fill-rule="evenodd" clip-rule="evenodd" d="M67.4564 57.6405C65.497 55.7563 65.8731 50.0969 64.6373 46.7196C64.4277 46.1463 62.0062 42.6349 63.9334 42.1399C65.4576 41.7482 66.7328 45.9582 66.928 47.424C67.3632 50.7007 67.1824 54.8011 67.4564 57.6405Z" fill="#C7399F"/>
<path fill-rule="evenodd" clip-rule="evenodd" d="M93.8956 42.3193C92.2783 43.6626 89.4216 43.7339 87.0252 44.2569C84.695 44.7655 82.1679 46.1158 80.332 45.1377C80.7619 41.2558 89.9177 42.7547 93.8956 42.3193Z" fill="#C7399F"/>
<path fill-rule="evenodd" clip-rule="evenodd" d="M49.3066 45.835C50.6535 46.4996 52.1383 47.9163 51.9484 49.534C50.4368 49.0352 49.3174 47.2529 49.3066 45.835Z" fill="#C7399F"/>
<path fill-rule="evenodd" clip-rule="evenodd" d="M0 54.9975C0.381493 53.9199 1.91999 54.1701 2.99462 53.9408C5.93552 53.3136 10.2125 52.105 13.0352 51.827C14.2102 51.7113 15.6555 51.4869 15.8525 52.5316C16.1534 54.1226 12.7415 54.3193 11.4484 54.4693C7.4006 54.939 3.41731 55.2723 0 54.9975Z" fill="#C7399F"/>
<path fill-rule="evenodd" clip-rule="evenodd" d="M52.6539 52.7029C52.0915 54.3845 51.0491 56.4849 49.1309 56.2259C50.5082 55.4575 50.9828 51.4786 52.6539 52.7029Z" fill="#C7399F"/>
<path fill-rule="evenodd" clip-rule="evenodd" d="M54.0806 52.1777H54.6089C56.4913 56.0184 59.5361 59.2493 62.3606 62.5701C63.0931 63.4314 64.8394 64.9173 63.5928 66.2691C60.8579 65.3421 59.3445 62.5212 57.9564 60.2802C56.5075 57.9392 54.9116 55.4879 54.0806 52.7061C53.7672 52.5771 54.0555 52.3859 54.0806 52.1777Z" fill="#C7399F"/>
<path fill-rule="evenodd" clip-rule="evenodd" d="M48.0781 56.2283C46.2996 57.2464 44.9653 55.0779 43.6739 54.467C42.465 55.0188 41.0554 53.6734 41.5605 52.5293C43.9802 52.8187 46.9265 54.0854 48.0781 56.2283Z" fill="#C7399F"/>
<path fill-rule="evenodd" clip-rule="evenodd" d="M47.0299 57.9983C45.6149 57.9279 43.609 56.972 42.9785 55.5322C44.2537 55.7454 46.6824 56.2778 47.0299 57.9983Z" fill="#C7399F"/>
<path fill-rule="evenodd" clip-rule="evenodd" d="M86.6506 62.4011C84.7969 62.7103 82.8232 61.809 81.1915 61.168C79.6262 60.5535 77.7241 59.9125 76.9629 58.5258C77.1348 58.521 77.1008 58.3102 77.1402 58.1735C78.9742 57.7458 80.8405 59.1774 82.6011 60.1111C84.1002 60.9065 85.5492 61.4583 86.6506 62.4011Z" fill="#C7399F"/>
<path fill-rule="evenodd" clip-rule="evenodd" d="M67.8237 59.0479C68.5634 59.5742 69.2709 60.9632 69.0577 61.8661C68.0476 61.6022 67.075 59.9595 67.8237 59.0479Z" fill="#C7399F"/>
<path fill-rule="evenodd" clip-rule="evenodd" d="M63.0691 71.7387C60.9163 70.7649 59.2739 69.0283 57.6082 67.5113C55.9264 65.98 54.4972 64.1596 52.5002 62.9316C52.407 62.7898 52.3175 62.6456 52.3246 62.4033C52.4661 62.3099 52.6094 62.2193 52.853 62.227C54.8142 63.2211 56.9795 64.9157 59.0178 66.4544C60.7157 67.7361 64.3712 69.0853 63.0691 71.7387Z" fill="#C7399F"/>
<path fill-rule="evenodd" clip-rule="evenodd" d="M21.4919 70.3271C21.1695 73.7432 17.5408 75.6148 15.1516 77.7252C14.3725 78.4134 13.631 79.555 12.5098 79.6628C12.9933 78.0433 14.5605 76.5847 16.0328 75.0831C17.7289 73.352 19.1599 71.1954 21.1408 70.3271H21.4919Z" fill="#C7399F"/>
<path fill-rule="evenodd" clip-rule="evenodd" d="M61.8379 77.373C62.8481 77.4778 62.8731 78.5687 63.2457 79.3106C62.1997 79.8843 61.6033 78.6495 61.8379 77.373Z" fill="#C7399F"/>
<path fill-rule="evenodd" clip-rule="evenodd" d="M35.9472 78.6015C36.6367 80.7013 34.6773 82.7938 33.8319 84.7658C32.9615 86.8004 32.5603 89.4135 30.6618 90.404C30.1263 89.5801 31.0487 89.1467 31.3675 88.2887C32.3149 85.7347 32.6678 81.7611 33.8319 79.8347C34.2242 79.187 34.8349 78.4856 35.9472 78.6015Z" fill="#C7399F"/>
<path fill-rule="evenodd" clip-rule="evenodd" d="M66.9251 79.4824C67.5412 79.6877 67.8421 80.2096 68.3328 80.5393C67.8904 81.8486 65.863 80.1997 66.9251 79.4824Z" fill="#C7399F"/>
<path fill-rule="evenodd" clip-rule="evenodd" d="M71.1507 80.7129C71.9817 80.9715 72.1178 80.8316 72.7357 81.2414C72.6874 82.3322 71.4229 82.1778 70.9751 81.5935C70.9178 81.1852 71.002 80.9172 71.1507 80.7129Z" fill="#C7399F"/>
<path fill-rule="evenodd" clip-rule="evenodd" d="M54.082 90.7617C55.3752 91.1969 56.4104 92.225 57.4295 93.0525C60.3686 95.4364 63.3453 97.9725 65.885 100.978C72.5656 100.039 78.014 96.0041 85.2605 95.5187C88.282 95.3164 91.2677 95.8304 93.5387 97.2793C93.5352 97.7468 93.6373 98.3163 93.1859 98.3361C91.5059 98.3146 90.0408 96.2029 87.9023 96.5754C85.5471 98.0745 81.8164 97.4262 78.9184 98.1605C74.491 99.2817 71.2635 103.467 67.2928 103.091C66.3847 103.007 65.8904 102.099 64.8283 101.684C64.3089 101.481 63.8038 101.725 63.4188 101.506C61.5919 100.48 60.3041 98.0298 58.6617 96.2226C56.9334 94.3169 54.8092 92.9235 54.082 90.7617Z" fill="#C7399F"/>
<path fill-rule="evenodd" clip-rule="evenodd" d="M91.5848 91.9901C91.6439 92.9733 90.2523 93.4229 89.8242 92.8695C90.1394 92.3572 90.949 91.6193 91.5848 91.9901Z" fill="#C7399F"/>
<path fill-rule="evenodd" clip-rule="evenodd" d="M96.8919 92.5167C96.7146 93.4642 95.4716 93.62 94.7766 94.1018C94.0925 94.5764 93.5426 95.6905 92.6632 95.334C92.1563 93.2851 95.2262 92.3895 96.8919 92.5167Z" fill="#C7399F"/>
<path fill-rule="evenodd" clip-rule="evenodd" d="M101.976 93.9323C101.095 95.2237 98.8635 95.1646 98.1005 96.5741C99.1877 96.5419 100.309 96.4792 100.567 97.278C101.758 97.047 102.329 95.5013 103.737 96.0458C103.835 97.4356 102.546 97.4374 101.976 98.1592C104.817 97.6183 106.742 101.444 103.561 102.033C102.994 101.722 102.883 100.951 102.68 100.273C101.588 100.368 101.041 99.9162 100.038 99.9198C99.8127 99.4183 98.842 98.9974 99.3327 98.3347C97.8694 98.4296 95.9799 98.3813 95.8115 97.1025C95.5447 95.0893 100.32 93.3663 101.976 93.9323Z" fill="#C7399F"/>
<path fill-rule="evenodd" clip-rule="evenodd" d="M112.039 112.253C108.971 111.506 107.349 108.626 104.818 107.143C104.268 106.822 103.435 106.81 102.88 106.439C101.331 105.404 99.9855 103.645 98.4775 102.388C96.9067 101.08 95.293 100.079 93.7205 98.8646C93.7366 98.6156 93.7509 98.3667 93.5449 98.3362C93.6237 98.1804 93.699 98.021 93.8978 97.9834C97.1646 99.9625 100.448 101.578 103.586 103.622C106.177 105.309 108.079 108.133 110.103 110.137C110.735 110.764 112.166 111.106 112.039 112.253Z" fill="#C7399F"/>
<path fill-rule="evenodd" clip-rule="evenodd" d="M57.4133 81.5955C58.4825 81.7613 58.6133 81.6399 59.5267 81.4194C57.9989 78.8951 55.6634 76.2413 53.0091 75.4305C54.7177 77.245 56.2598 79.2261 57.4133 81.5955ZM74.147 74.0213C74.0127 73.4065 74.6807 72.6913 74.147 72.26C73.633 72.5686 73.3715 73.7315 74.147 74.0213ZM68.8616 73.3167C68.9745 72.5124 69.1428 70.8816 68.5106 70.3223C68.2778 71.0276 68.0377 73.0984 68.8616 73.3167ZM55.1225 81.2434C54.9022 78.9324 52.0921 76.7672 51.7768 74.5497C51.0318 74.3546 50.4586 73.9887 49.6634 73.8453C49.4897 74.4845 51.3757 74.9416 50.7201 76.1349C49.3159 76.4063 48.6443 74.8683 47.7255 74.1974C46.1207 73.0268 43.6097 72.3782 41.2079 71.7315C42.2431 73.7504 44.8401 75.7318 46.1404 78.0727C46.273 80.6321 48.5583 82.4606 49.3106 84.7653C49.7136 85.9993 49.4342 87.1026 50.3673 87.9372C51.3828 88.3886 53.0395 88.1987 52.8336 89.8733C50.5966 90.219 48.6354 88.7969 48.4294 86.5277C46.9357 84.6077 46.0186 81.1721 44.9064 78.7773C43.6437 76.0578 41.5572 74.2182 39.4473 72.0838C39.3004 71.586 39.6945 71.6276 39.6228 71.2031C37.3894 69.6741 33.6372 68.7395 32.9297 66.271C34.9858 67.0406 36.7858 68.3335 39.0944 69.0893C41.3924 69.8418 44.0449 70.0658 46.4915 70.6746C51.261 71.8608 55.7261 73.5429 58.6455 76.4874C60.913 75.8693 62.7631 73.9221 64.8121 73.669C63.5763 75.8973 61.1637 76.9495 58.9983 78.2489C59.2043 79.452 60.175 79.8911 60.4079 81.0671C61.4234 81.0852 61.5936 80.2569 62.6968 80.3625C62.8562 81.4021 61.95 81.3773 61.4646 81.7715C62.9261 82.2496 64.9554 83.2286 66.5727 82.4761C67.0473 84.0471 71.156 84.896 71.5052 82.6524C72.4025 82.5528 72.9846 82.1351 73.6186 81.7715C73.5792 80.7195 73.1673 80.4399 72.913 79.3056C73.7727 79.26 73.7798 79.0162 74.4998 78.601C75.141 78.488 74.7166 79.4401 75.2037 79.4817C76.0491 78.7359 74.4085 78.4205 74.4998 77.3681C75.8789 77.338 75.7858 75.8362 76.6133 75.2543C74.3064 77.0018 71.4783 80.6846 68.3333 81.5955C68.6574 80.2166 70.0115 79.8671 70.624 78.7773C70.3321 78.0806 69.6819 76.9672 70.0957 76.1349C71.0234 76.0302 70.9124 76.9622 71.1524 77.5441C71.7166 76.1973 72.6604 76.7231 73.4413 76.1349C73.2765 75.361 72.7715 74.9263 72.913 73.8453C70.1852 75.4031 68.1989 77.7032 65.3386 79.1294C64.8407 78.3641 65.9709 77.9471 66.2198 77.3681C64.6079 77.4675 64.547 74.8182 65.3386 74.0213C66.2019 73.9232 65.7595 75.1273 65.8688 75.7828C66.5279 75.6798 67.4145 74.96 67.4539 76.1349C68.1345 76.1115 68.1488 75.4207 68.6861 75.2543C67.4306 74.9181 67.1172 73.3309 67.4539 71.9077C67.0903 71.3686 66.553 72.7286 66.0443 72.0838C67.9482 68.9969 70.3231 66.3806 71.8562 62.9244C69.064 57.3804 68.8903 49.0447 66.9255 42.6678C66.2628 40.5227 64.8604 39.029 64.6348 37.0312C73.0025 42.8135 69.1607 60.8063 77.8455 66.271C78.0103 66.8697 78.0819 67.5619 78.1983 68.2085C78.3989 68.9367 79.0885 68.7797 79.6079 69.4415C80.1542 70.1392 80.0485 71.1621 80.4873 71.9077C80.9727 72.7293 82.0437 73.0268 82.2497 73.8453C82.624 75.3286 81.8431 76.5662 81.5458 78.0727C83.9333 78.0696 86.0091 76.429 88.7673 77.0158C89.9673 77.2712 91.667 78.6557 92.9942 79.4817C94.4628 80.396 95.747 81.6404 96.6927 82.4761C102.168 84.5486 109.8 86.9898 115.189 90.4035C116.589 91.2901 121.64 93.5092 119.416 95.3342C116.315 94.2668 114.431 91.9814 111.666 90.579C111.111 90.4912 110.976 90.9623 110.609 90.579C106.363 87.9551 101.308 86.139 97.0455 83.533C97.1942 84.4447 98.4246 85.2023 97.7494 86.3521C96.3291 86.5742 96.3076 83.936 95.636 82.8292C94.5219 82.1797 93.4634 81.3252 92.2903 80.7148C90.3183 79.6893 88.6992 78.591 85.9482 79.3056C82.5703 80.1834 78.4097 81.4461 75.5566 82.6524C73.9357 84.0023 71.7524 86.3181 68.8616 85.9993C66.467 85.736 64.8156 83.2787 62.6968 82.8292C60.6067 82.3835 57.2234 82.7683 55.8282 83.3575C55.0079 83.7032 53.3709 85.0769 53.5374 85.9993C53.7649 87.2602 56.0252 87.253 57.4133 87.7599C57.7948 87.262 57.501 86.0871 57.9416 85.6465C57.3506 85.1217 56.3619 84.9945 55.8282 84.4142C56.8186 84.1312 58.4861 84.6883 59.1739 85.2936C59.4855 87.0703 59.0449 88.2292 57.5888 88.6411C58.8765 89.585 60.5673 90.1259 61.8175 91.1074C63.5046 90.8924 65.6915 90.5181 67.4539 90.9318C67.0957 92.0262 68.3709 92.5724 69.39 93.2208C69.4168 92.1963 68.593 92.0226 67.8049 91.8112C70.6455 90.8047 75.116 91.7611 77.1416 93.2208C76.5954 94.5927 73.5649 93.7545 72.3846 93.5736C72.0515 94.1503 73.4986 94.4513 73.4413 95.3342C71.953 96.425 71.2222 94.1486 70.2712 93.5736C70.1816 94.6751 71.1022 95.2572 70.624 96.2154C68.5016 95.6369 68.0789 93.3587 66.9255 91.8112C65.3368 92.4345 63.3273 93.1169 61.8175 91.9886C56.7918 92.6351 55.1691 88.4441 52.1279 86.5277C51.8879 84.5253 52.9876 83.8626 54.0658 83.1802C53.2724 80.5108 51.4348 78.8835 50.5428 76.3112C52.6885 77.3367 53.7345 79.4616 55.1225 81.2434Z" fill="#C7399F"/>
</svg>

<svg xmlns="http://www.w3.org/2000/svg" width="120" height="120" fill="none" viewBox="0 0 120 120"><path fill="#C7399F" fill-rule="evenodd" d="M43.514 7.617c.587 1.843.634 4 1.056 5.99.39 1.846 1.806 3.83.704 5.283-3.062-.878-2.239-7.056-2.29-10.744.093-.142.184-.286.177-.529zm21.833 2.11c-.091 2.272-1.093 4.998-1.76 7.574-.644 2.478-.765 5.703-2.995 6.693-1.576-2.192.403-4.955 1.234-7.046.94-2.366 1.796-4.756 2.817-6.693-.05-.285.167-.303.177-.528zm-47.194 7.579c.204-.028.313.039.35.176 1.622 1.812 3.318 3.669 5.109 5.46 1.682 1.683 4.452 2.999 4.404 5.814-2.731.511-3.983-2.773-5.461-4.58-1.632-1.997-3.622-3.971-4.58-6.165-.073-.369.122-.466.178-.705m65.332 7.754c-.964 1.495-2.809 2.24-4.227 3.347-1.283 1.001-2.407 3.054-4.404 2.642.836-3.745 5.142-4.017 7.574-6.165.435-.023.849-.027 1.057.176M63.76 37.035c-2.471-.11-3.655-2.732-5.283-4.227-1.562-1.436-3.492-3.323-5.636-4.052-2.214-.752-5.517-.007-8.279-.88-.039-1.471.55-1.53 2.114-1.41 5.289.405 9.618 2.238 13.21 4.756 2.143 1.502 4.446 3.68 3.875 5.813M41.04 26.997h.528c.252 1.237-1.47 1.361-2.114 1.761-2.418 1.501-4.619 3.281-6.695 5.637-4.083 4.637-9.068 11.521-6.516 20.785.527 1.916 1.736 3.605 2.818 4.932 1.153 1.414 3.585 2.441 3.347 4.932-2.676-.165-4.651-3.167-5.814-5.637-1.801-3.831-3.018-8.384-2.466-14.091.45-4.646 4.403-10.288 7.399-13.035 2.593-2.377 6.618-4.03 9.512-5.284m10.047 4.934c-.442 1.992.913 4.068.704 5.813-2.112-.003-1.621-2.606-1.938-4.404-1.84-1.272-4.83-1.393-7.397-1.937q-.048-.576.526-.529c2.608-.248 6.463-.245 8.105 1.057" clip-rule="evenodd"/><path fill="#C7399F" fill-rule="evenodd" d="M38.033 33.69c-.453 1.485-1.814 2.062-3.17 2.643.384-1.454 1.748-2.808 3.17-2.642m-23.775 2.818c-3.333.866-6.47-1.355-9.688-1.762v-.528c3.131.164 8.017.081 9.688 2.29m45.464-.177c.493 4.218-6.559 5.095-7.925 1.938 1.408.301 3.97 1.191 5.46-.176.415-.908 1.124-2.897 2.465-1.762m1.042 3.16h.703c-.164 1.078.652.78 1.057 1.586.01.655-.784.508-1.41.528-.47-.409-.72-1.377-.35-2.114m6.692 18.148c-1.959-1.884-1.583-7.543-2.819-10.92-.21-.574-2.63-4.085-.704-4.58 1.525-.392 2.8 3.818 2.995 5.284.435 3.277.254 7.377.528 10.217m26.44-15.321c-1.618 1.343-4.474 1.414-6.87 1.937-2.331.509-4.858 1.859-6.694.88.43-3.881 9.586-2.382 13.564-2.818m-44.589 3.516c1.346.665 2.831 2.081 2.641 3.699-1.511-.499-2.63-2.281-2.641-3.699M0 54.998c.381-1.078 1.92-.828 2.995-1.057 2.94-.627 7.218-1.836 10.04-2.114 1.175-.116 2.62-.34 2.817.705.301 1.59-3.11 1.787-4.404 1.937-4.047.47-8.03.803-11.448.529m52.654-2.295c-.562 1.681-1.605 3.782-3.523 3.523 1.377-.768 1.852-4.747 3.523-3.523m1.426-.525h.529c1.882 3.84 4.927 7.071 7.752 10.392.732.861 2.478 2.347 1.232 3.7-2.735-.928-4.249-3.749-5.637-5.99-1.449-2.34-3.044-4.792-3.875-7.574-.314-.129-.026-.32 0-.528m-6.003 4.05c-1.778 1.018-3.113-1.15-4.404-1.761-1.209.552-2.619-.794-2.114-1.938 2.42.29 5.366 1.556 6.518 3.7" clip-rule="evenodd"/><path fill="#C7399F" fill-rule="evenodd" d="M47.03 57.998c-1.415-.07-3.421-1.026-4.052-2.466 1.276.213 3.704.746 4.052 2.466m39.62 4.403c-1.853.31-3.827-.592-5.459-1.233-1.565-.614-3.467-1.255-4.228-2.642.172-.005.138-.216.177-.353 1.834-.427 3.7 1.004 5.461 1.938 1.5.796 2.948 1.347 4.05 2.29m-18.827-3.353c.74.526 1.447 1.915 1.234 2.818-1.01-.264-1.983-1.907-1.234-2.818M63.07 71.739c-2.154-.974-3.796-2.71-5.462-4.228-1.682-1.531-3.11-3.351-5.108-4.58-.093-.141-.182-.285-.175-.528.141-.093.284-.184.528-.176 1.961.994 4.127 2.689 6.165 4.227 1.698 1.282 5.353 2.631 4.051 5.285m-41.577-1.412c-.323 3.416-3.951 5.288-6.34 7.398-.78.688-1.521 1.83-2.642 1.938.483-1.62 2.05-3.078 3.523-4.58 1.696-1.731 3.127-3.888 5.108-4.756zm40.346 7.046c1.01.105 1.035 1.196 1.408 1.938-1.046.573-1.643-.662-1.408-1.938m-25.891 1.229c.69 2.1-1.27 4.192-2.115 6.164-.87 2.034-1.272 4.647-3.17 5.638-.536-.824.387-1.257.706-2.115.947-2.554 1.3-6.528 2.464-8.454.392-.648 1.003-1.35 2.115-1.233m30.978.88c.616.206.917.728 1.408 1.057-.443 1.31-2.47-.34-1.408-1.057m4.225 1.231c.832.259.968.119 1.586.528-.049 1.091-1.313.937-1.76.353-.058-.409.026-.677.175-.881M54.082 90.762c1.293.435 2.328 1.463 3.347 2.29 2.94 2.384 5.916 4.92 8.456 7.926 6.68-.939 12.129-4.974 19.375-5.46 3.022-.202 6.008.312 8.279 1.761-.004.468.098 1.037-.353 1.057-1.68-.021-3.145-2.133-5.284-1.76-2.355 1.499-6.086.85-8.984 1.585-4.427 1.12-7.655 5.306-11.625 4.93-.908-.084-1.403-.992-2.465-1.407-.52-.203-1.024.041-1.41-.178-1.826-1.026-3.114-3.476-4.756-5.283-1.729-1.906-3.853-3.3-4.58-5.461m37.503 1.228c.059.983-1.333 1.433-1.76.88.314-.513 1.124-1.25 1.76-.88m5.307.527c-.177.947-1.42 1.103-2.115 1.585-.684.474-1.234 1.588-2.114 1.232-.507-2.049 2.563-2.945 4.229-2.817m5.084 1.415c-.881 1.292-3.112 1.233-3.876 2.642 1.088-.032 2.209-.095 2.467.704 1.191-.231 1.762-1.777 3.17-1.232.098 1.39-1.191 1.391-1.761 2.113 2.841-.54 4.766 3.285 1.585 3.874-.567-.311-.678-1.082-.881-1.76-1.092.095-1.639-.357-2.642-.353-.225-.502-1.196-.923-.705-1.585-1.464.095-3.353.046-3.522-1.232-.266-2.014 4.509-3.737 6.165-3.17m10.063 18.32c-3.068-.747-4.69-3.627-7.221-5.11-.55-.321-1.383-.333-1.938-.704-1.549-1.035-2.894-2.794-4.402-4.051-1.571-1.308-3.185-2.309-4.757-3.523.016-.25.03-.498-.176-.529.079-.156.154-.315.353-.353 3.267 1.98 6.55 3.595 9.688 5.639 2.591 1.687 4.493 4.511 6.517 6.515.632.627 2.063.969 1.936 2.116" clip-rule="evenodd"/><path fill="#C7399F" fill-rule="evenodd" d="M57.413 81.596c1.07.165 1.2.044 2.114-.177-1.528-2.524-3.864-5.178-6.518-5.989 1.709 1.815 3.25 3.796 4.404 6.165m16.734-7.575c-.134-.615.534-1.33 0-1.761-.514.309-.776 1.471 0 1.761m-5.285-.704c.113-.805.28-2.435-.351-2.995-.233.706-.473 2.776.35 2.995m-13.74 7.926c-.22-2.31-3.03-4.476-3.345-6.693-.745-.195-1.318-.561-2.114-.705-.173.64 1.713 1.097 1.057 2.29-1.404.271-2.076-1.267-2.995-1.938-1.604-1.17-4.115-1.819-6.517-2.466 1.035 2.02 3.632 4 4.932 6.342.133 2.56 2.418 4.388 3.17 6.692.404 1.234.124 2.338 1.057 3.172 1.016.452 2.672.262 2.467 1.936-2.237.346-4.199-1.076-4.405-3.345-1.493-1.92-2.41-5.356-3.523-7.75-1.262-2.72-3.349-4.56-5.459-6.694-.147-.498.247-.456.176-.88-2.234-1.53-5.986-2.464-6.693-4.933 2.056.77 3.856 2.063 6.164 2.818 2.298.753 4.95.977 7.398 1.586 4.769 1.186 9.234 2.868 12.154 5.812 2.267-.618 4.117-2.565 6.166-2.818-1.236 2.228-3.648 3.28-5.814 4.58.206 1.203 1.177 1.642 1.41 2.818 1.015.018 1.186-.81 2.289-.704.16 1.04-.747 1.014-1.232 1.409 1.461.478 3.49 1.457 5.108.704.474 1.571 4.583 2.42 4.932.176.898-.1 1.48-.517 2.114-.88-.04-1.053-.452-1.332-.706-2.466.86-.046.867-.29 1.587-.705.641-.113.217.84.704.88.845-.745-.795-1.06-.704-2.113 1.379-.03 1.286-1.532 2.113-2.114-2.307 1.748-5.135 5.43-8.28 6.341.324-1.378 1.678-1.728 2.291-2.818-.292-.696-.942-1.81-.528-2.642.927-.105.816.827 1.056 1.41.565-1.348 1.508-.822 2.29-1.41-.165-.774-.67-1.209-.529-2.29-2.728 1.558-4.714 3.858-7.574 5.284-.498-.765.632-1.182.88-1.76-1.611.099-1.672-2.55-.88-3.348.863-.098.42 1.106.53 1.762.659-.103 1.546-.823 1.585.352.68-.023.695-.714 1.232-.88-1.255-.337-1.569-1.924-1.232-3.347-.364-.54-.901.82-1.41.176 1.904-3.087 4.28-5.703 5.812-9.16-2.792-5.544-2.966-13.88-4.93-20.256-.663-2.145-2.066-3.639-2.291-5.637 8.367 5.782 4.526 23.775 13.21 29.24.165.599.237 1.29.353 1.938.2.728.89.57 1.41 1.233.546.697.44 1.72.88 2.466.485.821 1.556 1.119 1.762 1.937.374 1.484-.407 2.721-.704 4.228 2.387-.003 4.463-1.644 7.221-1.057 1.2.255 2.9 1.64 4.227 2.466 1.469.914 2.753 2.158 3.699 2.994 5.475 2.073 13.107 4.514 18.496 7.927 1.4.887 6.451 3.106 4.227 4.931-3.101-1.067-4.985-3.353-7.75-4.755-.555-.088-.69.383-1.057 0-4.246-2.624-9.301-4.44-13.563-7.046.148.912 1.379 1.67.703 2.82-1.42.221-1.441-2.417-2.113-3.524-1.114-.65-2.173-1.504-3.346-2.114-1.972-1.026-3.59-2.124-6.342-1.41-3.378.878-7.538 2.141-10.391 3.347-1.621 1.35-3.805 3.666-6.695 3.347-2.395-.263-4.046-2.72-6.165-3.17-2.09-.445-5.474-.06-6.869.529-.82.345-2.457 1.719-2.29 2.641.227 1.261 2.487 1.254 3.875 1.76.382-.497.088-1.672.529-2.112-.591-.525-1.58-.653-2.114-1.233.99-.283 2.658.274 3.346.88.312 1.776-.13 2.935-1.585 3.347 1.288.944 2.978 1.485 4.229 2.466 1.687-.215 3.874-.589 5.636-.175-.358 1.094.917 1.64 1.936 2.289.027-1.025-.797-1.198-1.585-1.41 2.84-1.006 7.311-.05 9.337 1.41-.547 1.372-3.577.533-4.757.353-.334.576 1.114.877 1.056 1.76-1.488 1.091-2.219-1.185-3.17-1.76-.09 1.101.831 1.683.353 2.641-2.122-.578-2.545-2.856-3.698-4.404-1.59.623-3.599 1.306-5.108.178-5.026.646-6.649-3.545-9.69-5.461-.24-2.003.86-2.665 1.938-3.348-.794-2.67-2.631-4.297-3.523-6.869 2.145 1.026 3.191 3.15 4.58 4.932" clip-rule="evenodd"/></svg>
